img/download.svg

<svg width="20" height="20" viewBox="0 0 20 20" fill="none" xmlns="http://www.w3.org/2000/svg">
<path fill-rule="evenodd" clip-rule="evenodd" d="M18 13.4262C18 13.1887 18.2626 13 18.5 13C18.7374 13 19 13.1887 19 13.4262V17.56C19 17.7974 18.8051 18 18.5677 18H2.42616C2.18872 18 2 17.7974 2 17.56V13.4262C2 13.1887 2.26256 13 2.5 13C2.73744 13 3 13.1887 3 13.4262V17H18V13.4262ZM11 1V11H14L10.5 15L7 11H10V1H11Z" fill="white"/>
</svg>

<svg width="20" height="20" fill="none" xmlns="http://www.w3.org/2000/svg"><path fill-rule="evenodd" clip-rule="evenodd" d="M18 13.426c0-.237.263-.426.5-.426s.5.189.5.426v4.134a.44.44 0 01-.432.44H2.426A.435.435 0 012 17.56v-4.134c0-.237.263-.426.5-.426s.5.189.5.426V17h15v-3.574zM11 1v10h3l-3.5 4L7 11h3V1h1z" fill="#fff"/></svg>
